svgs/thin/blinds-raised.svg

<svg xmlns="http://www.w3.org/2000/svg" viewBox="0 0 512 512"><!--! Font Awesome Pro 6.3.0 by @fontawesome - https://fontawesome.com License - https://fontawesome.com/license (Commercial License) Copyright 2023 Fonticons, Inc. --><path d="M480 0H32C14.33 0 0 14.33 0 32v32c0 17.67 14.33 32 32 32h104v320.8C113.3 420.6 96 440.2 96 464C96 490.5 117.5 512 144 512S192 490.5 192 464c0-23.77-17.32-43.37-40-47.19V96H480c17.67 0 32-14.33 32-32V32C512 14.33 497.7 0 480 0zM176 464c0 17.64-14.36 32-32 32s-32-14.36-32-32s14.36-32 32-32S176 446.4 176 464zM496 63.99C496 72.81 488.8 80 480 80H32c-8.822 0-16.01-7.186-16.01-16.01L16 32c0-8.822 7.178-16 16-16h448c8.822 0 16 7.178 16 16L496 63.99zM487.4 220.8c-1.766-4.062-6.484-5.906-10.52-4.203c-4.062 1.75-5.938 6.453-4.203 10.52L491.9 272H192c-4.422 0-8 3.578-8 8s3.579 7.93 8.001 7.93L504 288c2.688 0 5.203-1.344 6.672-3.594c1.484-2.25 1.734-5.078 .6875-7.562L487.4 220.8zM104 280C104 275.6 100.4 272 96 272H20.13l19.23-44.84C41.09 223.1 39.22 218.4 35.16 216.6C31.11 214.9 26.39 216.8 24.64 220.8l-24 56C-.4063 279.3-.1563 282.2 1.328 284.4C2.797 286.7 5.313 288 8 288H96C100.4 288 104 284.4 104 280zM487.4 124.8c-1.766-4.078-6.484-5.922-10.52-4.203c-4.062 1.75-5.938 6.453-4.203 10.52L491.9 176H192c-4.422 0-8 3.578-8 8s3.579 7.953 8.001 7.953L504 192c2.688 0 5.203-1.344 6.672-3.594c1.484-2.25 1.734-5.078 .6875-7.562L487.4 124.8zM35.16 120.6C31.11 118.9 26.39 120.8 24.64 124.8l-24 56C-.4063 183.3-.1563 186.2 1.328 188.4C2.797 190.7 5.313 192 8 192H96c4.422 0 8-3.578 8-8S100.4 176 96 176H20.13l19.23-44.84C41.09 127.1 39.22 122.4 35.16 120.6z"/></svg>

<svg xmlns="http://www.w3.org/2000/svg" viewBox="0 0 512 512"><!-- Font Awesome Pro 6.0.0-alpha2 by @fontawesome - https://fontawesome.com License - https://fontawesome.com/license (Commercial License) --><path d="M480 0H32C14.326 0 0 14.326 0 32V64C0 81.674 14.326 96 32 96H136V416.807C113.32 420.631 96 440.23 96 464C96 490.51 117.49 512 144 512S192 490.51 192 464C192 440.23 174.68 420.631 152 416.807V96H480C497.674 96 512 81.674 512 64V32C512 14.326 497.674 0 480 0ZM176 464C176 481.645 161.645 496 144 496S112 481.645 112 464S126.355 432 144 432S176 446.355 176 464ZM496 64C496 72.822 488.822 80 480 80H32C23.178 80 16 72.822 16 64V32C16 23.178 23.178 16 32 16H480C488.822 16 496 23.178 496 32V64ZM487.359 220.844C485.594 216.781 480.875 214.938 476.844 216.641C472.781 218.391 470.906 223.094 472.641 227.156L491.875 272H192C187.578 272 184 275.578 184 280S187.578 288 192 288H504C506.688 288 509.203 286.656 510.672 284.406C512.156 282.156 512.406 279.328 511.359 276.844L487.359 220.844ZM104 280C104 275.578 100.422 272 96 272H20.125L39.359 227.156C41.094 223.094 39.219 218.391 35.156 216.641C31.109 214.906 26.391 216.766 24.641 220.844L0.641 276.844C-0.406 279.328 -0.156 282.156 1.328 284.406C2.797 286.656 5.312 288 8 288H96C100.422 288 104 284.422 104 280ZM487.359 124.844C485.594 120.766 480.875 118.922 476.844 120.641C472.781 122.391 470.906 127.094 472.641 131.156L491.875 176H192C187.578 176 184 179.578 184 184S187.578 192 192 192H504C506.688 192 509.203 190.656 510.672 188.406C512.156 186.156 512.406 183.328 511.359 180.844L487.359 124.844ZM35.156 120.641C31.109 118.891 26.391 120.766 24.641 124.844L0.641 180.844C-0.406 183.328 -0.156 186.156 1.328 188.406C2.797 190.656 5.312 192 8 192H96C100.422 192 104 188.422 104 184S100.422 176 96 176H20.125L39.359 131.156C41.094 127.094 39.219 122.391 35.156 120.641Z"/></svg>
